X: 766
T: Kai huang
%%abc-version 2.0
%%abcx-abcm2ps-target-version 5.9.1 (29 Sep 2008)
%%abc-creator hum2abc beta
%%abcx-conversion-date 2013/10/02 07:52:30
%%abc-edited-by Helmut Schaffrath
%%humdrum-veritas 1774715573
%%humdrum-veritas-data 2074478742
%%continueall 1
%%barnumbers 0
L: 1/8
M: 2/4
K: Bb
f' d' c' d' [I:setbarnb 1]| 
b g f c | 
f g b d | 
c4 | 
f' d' c' d' | 
b g f d | 
f2g2 | 
c' b g f |]  



